X: 5256
T: Broken Poached Eggs
R: jig
M: 6/8
K: Gdorian
|:GBG ABc|d2g fdc|cdg ^fga|g^fd cAF|
GBG ABc|d2g fdc|cdg fdc|BGF G3:|
|:~g3 gfe|fag fed|~f3 fed|cAG F2D|
GBG AcA|BdB c3|dgd fdc|BGF G3:|

